X:1
T:Title
%%score { ( 1 3 ) | ( 2 4 ) }
L:1/8
M:4/4
K:D
V:1 treble nm="Grand Piano"
V:3 treble 
V:2 bass 
V:4 bass 
V:1
 z4 z2[Q:1/4=106] F2 | F2 [EG]2 [FA]2 [Ad]2 | c2 B2 E2 F2 | G2 G2 [CF]2 E2 |[M:3/4] A6 | %5
[M:1/4] G2 |[M:4/4] F2 [EG]2 [FA]2 [Ad]2 | c2 B2 E2 F2 | G2 A2 [GB]2 [Gc]2 |[M:3/4] [Fd]6 | %10
[M:1/4] [Fd]2 |[M:4/4] [Gc]2 [GB]2 [Gc]2 [GB]2 | [FA]6 z2 | [A,CG]2 [A,CF]2 [A,CG]2 [A,CA]2 | %14
[M:3/4] [DF]6 |[M:1/4] D2 |[M:4/4] F2 D2 G2 E2 |[M:9/8] z3 z3 z B2 |[M:4/4] A2 d2 e2 c2 | %19
[M:7/8] d2- [Ad-] [Gd-] [Fd]3 |] %20
V:2
 z4 z2 [D,A,D]2 | [D,A,D]2 [D,A,]2 [D,D]2 [F,D]2 | [G,DG]2 [G,DG]2[K:bass] [G,B,]2 [F,B,D]2 | %3
 [E,B,D]2 [E,B,D]2 [A,,A,]2 [G,A,C]2 |[M:3/4] [F,A,D]6 |[M:1/4] [E,A,C]2 | %6
[M:4/4] [D,A,D]2 [D,A,]2 [D,D]2 [F,D]2 | [G,DG]2 [G,DG]2[K:bass] [G,B,D]2 [F,B,D]2 | %8
 [E,B,D]2 [E,B,D]2 [A,,A,]2 [A,,A,]2 |[M:3/4] [D,A,]6 |[M:1/4] [D,A,]2 | %11
[M:4/4] [E,A,]2 [A,,A,]2 [E,A,]2 [A,,A,]2 | [D,A,]2 A,,2 D,2 A,,2 | E,2 A,,2 E,2 A,,2 | %14
[M:3/4] D,2 A,,2 D,2 |[M:1/4] [D,F,]2 |[M:4/4] [D,A,D]2 [F,A,]2 [E,A,C]2 [G,A,C]2 | %17
[M:9/8] [F,=CD]2[K:treble] [A,CD]- [A,CD] [G,B,D]2- [G,B,D] .[G,B,D]2 | %18
[M:4/4] [A,DF]2 [A,DF]2 [A,CG]2 [A,EG]2 |[M:7/8][K:bass] z2 C B, A,3 |] %20
V:3
 x8 | x8 | x8 | x8 |[M:3/4] x6 |[M:1/4] x2 |[M:4/4] x8 | x8 | x8 |[M:3/4] x6 |[M:1/4] x2 | %11
[M:4/4] x8 | z2 A,2 A,2 [A,FA]2 | x8 |[M:3/4] A,2 A,2 A,2 |[M:1/4] x2 |[M:4/4] x8 | %17
[M:9/8] A2 F- F B2- B z E |[M:4/4] x8 |[M:7/8] [DF]2 z z z z2 |] %20
V:4
 x8 | x8 | x4[K:bass] x4 | x8 |[M:3/4] x6 |[M:1/4] x2 |[M:4/4] x8 | x4[K:bass] x4 | x8 | %9
[M:3/4] x6 |[M:1/4] x2 |[M:4/4] x8 | x8 | x8 |[M:3/4] x6 |[M:1/4] x2 |[M:4/4] x8 | %17
[M:9/8] x2[K:treble] x7 |[M:4/4] x8 |[M:7/8][K:bass] D,-D,-D,- D,- D,3 |] %20

